Yaru++/apps/scalable/com.github.aimproxy.dotfonts.svg

<svg enable-background="new" height="256" viewBox="0 0 256 256" width="256" xmlns="http://www.w3.org/2000/svg" xmlns:xlink="http://www.w3.org/1999/xlink">
  <filter id="filter11191" color-interpolation-filters="sRGB" height="1.024" width="1.024" x="-.01" y="-.01">
    <feGaussianBlur stdDeviation="1.12"/>
  </filter>
  <filter id="filter11210" color-interpolation-filters="sRGB" height="1.096" width="1.096" x="-.05" y="-.05">
    <feGaussianBlur stdDeviation="4.48"/>
  </filter>
  <filter id="filter1_d" color-interpolation-filters="sRGB" filterUnits="userSpaceOnUse" height="71.952003" width="78.355797" x="27.204201" y="29.048">
    <feFlood flood-opacity="0" result="BackgroundImageFix"/>
    <feColorMatrix in="SourceAlpha" type="matrix" values="0 0 0 0 0 0 0 0 0 0 0 0 0 0 0 0 0 0 127 0"/>
    <feOffset dy="4"/>
    <feGaussianBlur stdDeviation="6"/>
    <feColorMatrix type="matrix" values="0 0 0 0 0 0 0 0 0 0 0 0 0 0 0 0 0 0 0.33 0"/>
    <feBlend in2="BackgroundImageFix" mode="darken" result="effect1_dropShadow"/>
    <feBlend in="SourceGraphic" in2="effect1_dropShadow" mode="normal" result="shape"/>
  </filter>
  <circle cx="128.752" cy="127.248" filter="url(#filter11210)" opacity=".1" r="112"/>
  <circle cx="128.752" cy="125.248" filter="url(#filter11191)" opacity=".1" r="112"/>
  <circle cx="128.752" cy="123.248" opacity=".1" r="114"/>
  <rect fill="#d5d3cf" height="212.8" rx="104.533" width="209.067" x="24.18" y="19.55"/>
  <path d="m240.75624 123.248a112 112 0 0 1 -111.99997 111.99999 112 112 0 0 1 -112.000035-111.99999 112 112 0 0 1 112.000035-112.000004 112 112 0 0 1 111.99997 112.000004z" fill="#3d3846"/>
  <path d="m128.752 235.248a112 112 0 0 1 -112-112 112 112 0 0 1 .04102-1.16992 112 112 0 0 0 111.95898 111.16992 112 112 0 0 0 111.95898-110.83008 112 112 0 0 1 .041.83008 112 112 0 0 1 -112 112z" opacity=".2"/>
  <path d="m128.752 11.248007a112 112 0 0 0 -112 111.999993 112 112 0 0 0 .04102 1.16992 112 112 0 0 1 111.95898-111.169913 112 112 0 0 1 111.95898 110.830073 112 112 0 0 0 .041-.83008 112 112 0 0 0 -112-111.999993z" fill="#fff" opacity=".3"/>
  <g filter="url(#filter1_d)" transform="translate(65.956885 59.721761)"/>
  <path d="m223.7903 46.819314q0-7.296-1.344-12.096-1.152-4.992-4.608-9.216-3.456-4.224-10.368-6.144-6.912-1.92-17.664-1.92-5.76 0-8.256 1.728-2.496 1.728-3.84 6.72l-11.712 42.816q18.816-.192 24.96-3.456 6.336-3.264 13.056-16.896l5.376.768-14.208 52.415996-5.376-.96q.768-4.799996.768-8.447996 0-9.792-5.568-13.44-5.376-3.648-20.736-3.84l-10.368 38.591996q-2.88 8.64-2.88 13.056 0 4.416 2.688 6.144 2.88 1.728 10.944 2.304v4.8h-56.64v-4.8q7.488-1.152 10.368-3.648 2.88-2.496 4.992-10.176l23.616-86.207996q1.92-7.104 1.92-11.52 0-3.648-2.688-4.8-2.496-1.344-9.408-2.304-1.344-.192-1.92-.192v-4.8h102.336l-8.256 36.48z" fill="#fff" transform="translate(-43.866063 47.724681)"/>
  <path d="m192.91016 59.023438-7.80274 34.480468-5.18359-.958984c0-4.864-.44775-8.897656-1.34375-12.097656-.768-3.328-2.30342-6.398844-4.60742-9.214844s-5.76114-4.864531-10.36914-6.144531-10.49607-1.919922-17.66407-1.919922c-3.84 0-6.59186.576515-8.25586 1.728515s-2.94384 3.39075-3.83984 6.71875l-11.71094 42.816406c.19167-.00196.36109-.00928.55078-.01172l11.16016-40.804686c.896-3.328 2.17584-5.56675 3.83984-6.71875s4.41586-1.728515 8.25586-1.728515c7.168 0 13.05607.639922 17.66407 1.919922s8.06514 3.328531 10.36914 6.144531 3.83942 5.886844 4.60742 9.214844c.896 3.2 1.34375 7.233656 1.34375 12.097656l5.18359.958984 8.25586-36.480468zm-101.882816 2.800781v2c.384 0 1.023922.063406 1.919922.191406 4.608.64 7.744204 1.408687 9.408204 2.304687 1.59557.683816 2.47744 2.030195 2.65234 4.033204.02296-.426415.03711-.840102.03711-1.234375 0-2.432-.89745-4.030828-2.68945-4.798829-1.664-.896-4.800204-1.664687-9.408204-2.304687-.896-.128-1.535922-.191406-1.919922-.191406zm73.974606 34.949219-13.68554 50.490232-5.09571-.9082c-.08473.63615-.17408 1.27942-.28125 1.94922l5.37696.95898 14.20703-52.416014zm-44.59765 23.802732-10.36719 38.5918c-1.92 5.76-2.88086 10.11264-2.88086 13.05664 0 .34564.01436.67515.03906.99609.18386-2.89787 1.12775-6.91057 2.8418-12.05273l10.36719-38.5918c10.24.128 17.15232 1.40785 20.73632 3.83985 3.55091 2.32645 5.38301 6.54839 5.53711 12.62304.01247-.39815.03125-.80413.03125-1.18359 0-6.528-1.85635-11.00745-5.56836-13.43945-3.584-2.432-10.49632-3.71185-20.73632-3.83985zm-56.255862 64.89649v2h56.640622v-2z" opacity=".2"/>
</svg>

<?xml version="1.0" encoding="UTF-8" standalone="no"?>
<svg
   xmlns:dc="http://purl.org/dc/elements/1.1/"
   xmlns:cc="http://creativecommons.org/ns#"
   xmlns:rdf="http://www.w3.org/1999/02/22-rdf-syntax-ns#"
   xmlns:svg="http://www.w3.org/2000/svg"
   xmlns="http://www.w3.org/2000/svg"
   xmlns:xlink="http://www.w3.org/1999/xlink"
   xmlns:sodipodi="http://sodipodi.sourceforge.net/DTD/sodipodi-0.dtd"
   xmlns:inkscape="http://www.inkscape.org/namespaces/inkscape"
   style="enable-background:new"
   width="256"
   height="256"
   version="1.0"
   viewBox="0 0 256 256"
   id="svg55"
   sodipodi:docname="com.github.aimproxy.dotfonts.svg"
   inkscape:version="0.92.4 (5da689c313, 2019-01-14)">
  <metadata
     id="metadata59">
    <rdf:RDF>
      <cc:Work
         rdf:about="">
        <dc:format>image/svg+xml</dc:format>
        <dc:type
           rdf:resource="http://purl.org/dc/dcmitype/StillImage" />
        <dc:title>
  Adwaita Icon Template
 </dc:title>
      </cc:Work>
    </rdf:RDF>
  </metadata>
  <sodipodi:namedview
     pagecolor="#ffffff"
     bordercolor="#666666"
     borderopacity="1"
     objecttolerance="10"
     gridtolerance="10"
     guidetolerance="10"
     inkscape:pageopacity="0"
     inkscape:pageshadow="2"
     inkscape:window-width="1920"
     inkscape:window-height="1016"
     id="namedview57"
     showgrid="false"
     inkscape:zoom="3.4174597"
     inkscape:cx="128.30399"
     inkscape:cy="129.2"
     inkscape:window-x="0"
     inkscape:window-y="27"
     inkscape:window-maximized="1"
     inkscape:current-layer="svg55" />
  <title
     id="title4162">
  Adwaita Icon Template
 </title>
  <defs
     id="defs29">
    <linearGradient
       id="linearGradient950">
      <stop
         style="stop-color:#9a9996"
         id="stop946"
         offset="0" />
      <stop
         style="stop-color:#77767b"
         id="stop948"
         offset="1" />
    </linearGradient>
    <linearGradient
       id="linearGradient1001"
       x1="1660.857"
       x2="1662.99"
       y1="806.297"
       y2="812.882"
       gradientTransform="matrix(1.8293937,-0.81599442,0.81599442,1.8293937,-3645.9624,100.02949)"
       gradientUnits="userSpaceOnUse"
       xlink:href="#linearGradient950" />
    <clipPath
       id="clipPath5154"
       clipPathUnits="userSpaceOnUse">
      <circle
         style="fill:url(#radialGradient5158)"
         cx="128"
         cy="924.362"
         r="109.647"
         id="circle7" />
    </clipPath>
    <clipPath
       id="clipPath977"
       clipPathUnits="userSpaceOnUse">
      <circle
         style="fill:url(#radialGradient5158)"
         cx="128"
         cy="924.362"
         r="109.647"
         id="circle10" />
    </clipPath>
    <clipPath
       id="clipPath4688"
       clipPathUnits="userSpaceOnUse">
      <path
         style="fill:url(#radialGradient4692);stroke:#a7003f;stroke-linecap:round;stroke-linejoin:round"
         d="m 106.42383,889.60156 c -2.2448,-0.0524 -4.09304,1.75264 -4.09375,3.99805 v 32.64453 32.64453 c -4e-5,3.07923 3.33305,5.004 6,3.46485 l 28.26953,-16.32227 28.27148,-16.32227 c 2.66559,-1.54001 2.66559,-5.38772 0,-6.92773 l -28.27148,-16.32227 -28.26953,-16.32226 c -0.58054,-0.3353 -1.23603,-0.51932 -1.90625,-0.53516 z"
         id="path13" />
    </clipPath>
    <clipPath
       id="clipPath4564"
       clipPathUnits="userSpaceOnUse">
      <circle
         style="fill:url(#radialGradient4568)"
         cx="128"
         cy="924.362"
         r="109.647"
         id="circle16" />
    </clipPath>
    <clipPath
       id="clipPath6215"
       clipPathUnits="userSpaceOnUse">
      <path
         style="fill:url(#radialGradient6219)"
         d="m 105.17325,806.18572 c -3.06859,0.56361 -6.11393,1.24721 -9.129005,2.04923 -3.838255,1.06506 -7.62084,2.32142 -11.333578,3.76438 -3.712189,1.44307 -7.34989,3.07087 -10.899472,4.87732 -3.549153,1.80656 -7.005749,3.78947 -10.35684,5.94129 -3.351877,2.15253 -6.593991,4.47137 -9.714191,6.94783 -3.119992,2.47544 -6.114241,5.10535 -8.971529,7.87988 -0.367219,0.38909 -0.731819,0.78065 -1.093777,1.17464 2.60205,17.85956 16.832359,40.03752 30.863064,55.74236 -4.76734,8.84435 -7.265993,18.73329 -7.272057,28.78068 0.02104,2.87431 0.246096,5.7435 0.673482,8.58593 -20.257302,-9.18513 -43.077023,-26.53494 -52.798465,-47.36396 -0.440667,1.15171 -0.863474,2.31018 -1.268271,3.47498 -1.176789,3.80495 -2.162562,7.66637 -2.953625,11.56979 -0.79154,3.90311 -1.3874065,7.84335 -1.7853678,11.80598 -0.39733,3.96334 -0.5961891,7.94407 -0.5958321,11.92728 -4.394e-4,2.81936 0.098928,5.63785 0.2979155,8.45018 0.282275,3.97319 0.763088,7.92978 1.4406374,11.85493 0.625626,3.51826 1.408798,7.00668 2.347153,10.45473 16.778133,6.68355 43.114514,5.45001 63.748015,1.14301 6.818545,11.02763 16.987182,19.58379 29.018153,24.41667 -18.071844,12.93645 -44.490188,24.02095 -67.37308,22.03245 1.384097,1.665 2.813203,3.2921 4.285735,4.8794 2.774977,2.8571 5.691103,5.5737 8.737453,8.1395 3.046107,2.5658 6.218619,4.9777 9.505651,7.2266 3.287242,2.2488 6.684891,4.3319 10.180217,6.2413 3.495379,1.9096 7.084075,3.6433 10.752641,5.1944 3.66896,1.5509 7.413193,2.9174 11.218668,4.0942 1.438565,0.3959 2.884421,0.7648 4.336807,1.1066 14.138748,-11.1844 26.206378,-34.5828 32.780368,-54.56406 12.95816,-0.38251 25.45395,-4.90132 35.65955,-12.89544 2.15922,22.12638 -1.46693,50.5581 -14.64692,69.3832 3.06859,-0.5636 6.11393,-1.2473 9.129,-2.0493 3.83826,-1.0651 7.62084,-2.3214 11.33358,-3.7644 3.71219,-1.4431 7.34989,-3.0709 10.89947,-4.8773 3.54915,-1.8066 7.00575,-3.7895 10.35684,-5.9413 3.35188,-2.1525 6.59399,-4.4714 9.71419,-6.9478 3.11999,-2.4754 6.11424,-5.1054 8.97153,-7.8799 0.36722,-0.3891 0.73182,-0.7806 1.09378,-1.1746 -2.60204,-17.85957 -16.83236,-40.03755 -30.86307,-55.74238 4.76735,-8.84435 7.266,-18.7333 7.27207,-28.78069 -0.021,-2.8743 -0.24611,-5.74349 -0.6735,-8.58592 20.25731,9.18513 43.07704,26.53494 52.79848,47.36396 0.44067,-1.15171 0.86347,-2.31018 1.26827,-3.47499 1.17679,-3.80495 2.16256,-7.66636 2.95362,-11.56978 0.79154,-3.90311 1.38741,-7.84335 1.78537,-11.80598 0.39733,-3.96334 0.59619,-7.94408 0.59583,-11.92729 4.4e-4,-2.81936 -0.0989,-5.63784 -0.29791,-8.45017 -0.28228,-3.97319 -0.76309,-7.92978 -1.44064,-11.85493 -0.62776,-3.53416 -1.41449,-7.03823 -2.35779,-10.50154 -20.56165,-7.32804 -45.89823,-4.79548 -63.74906,-1.11372 -6.81835,-11.01918 -16.98234,-19.56874 -29.00647,-24.39915 18.07184,-12.93645 44.49019,-24.02091 67.37307,-22.03241 -1.38409,-1.66502 -2.8132,-3.2921 -4.28573,-4.87944 -2.77498,-2.85712 -5.6911,-5.57368 -8.73745,-8.13949 -3.04611,-2.56581 -6.21862,-4.97769 -9.50565,-7.22659 -3.28724,-2.24885 -6.68489,-4.3319 -10.18022,-6.24135 -3.49538,-1.90963 -7.08407,-3.64325 -10.75264,-5.19438 -3.66896,-1.55092 -7.41319,-2.91736 -11.21867,-4.09421 -1.42662,-0.39262 -2.86041,-0.75869 -4.30063,-1.09804 -14.14688,11.18369 -26.2293,34.57475 -32.8107,54.55552 -12.96018,0.38127 -25.4582,4.90015 -35.665394,12.89544 -2.15922,-22.12637 1.466931,-50.55807 14.646924,-69.38315 z"
         id="path19" />
    </clipPath>
    <linearGradient
       id="linearGradient954">
      <stop
         id="stop950"
         offset="0"
         style="stop-color:#faf8f6" />
      <stop
         id="stop952"
         offset="1"
         style="stop-color:#f1f0e9" />
    </linearGradient>
    <filter
       style="color-interpolation-filters:sRGB"
       id="filter11191"
       width="1.024"
       height="1.024"
       x="-.01"
       y="-.01">
      <feGaussianBlur
         id="feGaussianBlur11193"
         stdDeviation="1.12" />
    </filter>
    <filter
       style="color-interpolation-filters:sRGB"
       id="filter11210"
       width="1.096"
       height="1.096"
       x="-.05"
       y="-.05">
      <feGaussianBlur
         id="feGaussianBlur11212"
         stdDeviation="4.48" />
    </filter>
    <filter
       style="color-interpolation-filters:sRGB"
       id="filter1_d"
       x="27.204201"
       y="29.048"
       width="78.355797"
       height="71.952003"
       filterUnits="userSpaceOnUse">
      <feFlood
         flood-opacity="0"
         result="BackgroundImageFix"
         id="feFlood27" />
      <feColorMatrix
         in="SourceAlpha"
         type="matrix"
         values="0 0 0 0 0 0 0 0 0 0 0 0 0 0 0 0 0 0 127 0"
         id="feColorMatrix29" />
      <feOffset
         dy="4"
         id="feOffset31" />
      <feGaussianBlur
         stdDeviation="6"
         id="feGaussianBlur33" />
      <feColorMatrix
         type="matrix"
         values="0 0 0 0 0 0 0 0 0 0 0 0 0 0 0 0 0 0 0.33 0"
         id="feColorMatrix35" />
      <feBlend
         mode="darken"
         in2="BackgroundImageFix"
         result="effect1_dropShadow"
         id="feBlend37" />
      <feBlend
         mode="normal"
         in="SourceGraphic"
         in2="effect1_dropShadow"
         result="shape"
         id="feBlend39" />
    </filter>
  </defs>
  <circle
     style="opacity:0.1;filter:url(#filter11210)"
     cx="128.752"
     cy="127.248"
     r="112"
     id="circle31" />
  <circle
     style="opacity:0.1;filter:url(#filter11191)"
     cx="128.752"
     cy="125.248"
     r="112"
     id="circle33" />
  <circle
     style="opacity:0.1"
     cx="128.752"
     cy="123.248"
     r="114"
     id="circle35" />
  <rect
     style="fill:#d5d3cf"
     width="209.067"
     height="212.8"
     x="24.18"
     y="19.55"
     rx="104.533"
     ry="104.533"
     id="rect37" />
  <path
     style="fill:#3d3846"
     d="M 240.75624,123.248 A 112,112 0 0 1 128.75627,235.24799 112,112 0 0 1 16.756235,123.248 112,112 0 0 1 128.75627,11.247996 112,112 0 0 1 240.75624,123.248 Z"
     id="path39" />
  <path
     style="opacity:0.2"
     d="m 128.752,235.248 a 112,112 0 0 1 -112,-112 112,112 0 0 1 0.04102,-1.16992 A 112,112 0 0 0 128.752,233.248 112,112 0 0 0 240.71098,122.41792 a 112,112 0 0 1 0.041,0.83008 112,112 0 0 1 -112,112 z"
     id="path45" />
  <path
     style="opacity:0.3;fill:#ffffff"
     d="M 128.752,11.248007 A 112,112 0 0 0 16.752,123.248 112,112 0 0 0 16.79302,124.41792 112,112 0 0 1 128.752,13.248007 112,112 0 0 1 240.71098,124.07808 a 112,112 0 0 0 0.041,-0.83008 112,112 0 0 0 -112,-111.999993 z"
     id="path53" />
  <g
     transform="translate(65.956885,59.721761)"
     style="filter:url(#filter1_d)"
     id="g8" />
  <g
     aria-label="F"
     style="font-style:normal;font-weight:normal;font-size:40px;line-height:1.25;font-family:sans-serif;letter-spacing:0px;word-spacing:0px;fill:#000000;fill-opacity:1;stroke:none"
     id="text892"
     transform="translate(-43.866063,47.724681)">
    <path
       d="m 223.7903,46.819314 q 0,-7.296 -1.344,-12.096 -1.152,-4.992 -4.608,-9.216 -3.456,-4.224 -10.368,-6.144 -6.912,-1.92 -17.664,-1.92 -5.76,0 -8.256,1.728 -2.496,1.728 -3.84,6.72 l -11.712,42.816 q 18.816,-0.192 24.96,-3.456 6.336,-3.264 13.056,-16.896 l 5.376,0.768 -14.208,52.415996 -5.376,-0.96 q 0.768,-4.799996 0.768,-8.447996 0,-9.792 -5.568,-13.44 -5.376,-3.648 -20.736,-3.84 l -10.368,38.591996 q -2.88,8.64 -2.88,13.056 0,4.416 2.688,6.144 2.88,1.728 10.944,2.304 v 4.8 h -56.64 v -4.8 q 7.488,-1.152 10.368,-3.648 2.88,-2.496 4.992,-10.176 l 23.616,-86.207996 q 1.92,-7.104 1.92,-11.52 0,-3.648 -2.688,-4.8 -2.496,-1.344 -9.408,-2.304 -1.344,-0.192 -1.92,-0.192 v -4.8 h 102.336 l -8.256,36.48 z"
       style="font-style:italic;font-variant:normal;font-weight:bold;font-stretch:normal;font-size:192px;font-family:FreeSerif;-inkscape-font-specification:'FreeSerif Bold Italic';fill:#ffffff;fill-opacity:1"
       id="path894"
       inkscape:connector-curvature="0" />
  </g>
  <g
     transform="translate(-43.866063,47.724681)"
     id="g899"
     style="font-style:normal;font-weight:normal;font-size:40px;line-height:1.25;font-family:sans-serif;letter-spacing:0px;word-spacing:0px;fill:#000000;fill-opacity:1;stroke:none"
     aria-label="F">
    <path
       style="font-style:italic;font-variant:normal;font-weight:bold;font-stretch:normal;font-size:192px;font-family:FreeSerif;-inkscape-font-specification:'FreeSerif Bold Italic';fill:#000000;fill-opacity:1;opacity:0.2"
       d="M 192.91016 59.023438 L 185.10742 93.503906 L 179.92383 92.544922 C 179.92383 87.680922 179.47608 83.647266 178.58008 80.447266 C 177.81208 77.119266 176.27666 74.048422 173.97266 71.232422 C 171.66866 68.416422 168.21152 66.367891 163.60352 65.087891 C 158.99552 63.807891 153.10745 63.167969 145.93945 63.167969 C 142.09945 63.167969 139.34759 63.744484 137.68359 64.896484 C 136.01959 66.048484 134.73975 68.287234 133.84375 71.615234 L 122.13281 114.43164 C 122.32448 114.42968 122.4939 114.42236 122.68359 114.41992 L 133.84375 73.615234 C 134.73975 70.287234 136.01959 68.048484 137.68359 66.896484 C 139.34759 65.744484 142.09945 65.167969 145.93945 65.167969 C 153.10745 65.167969 158.99552 65.807891 163.60352 67.087891 C 168.21152 68.367891 171.66866 70.416422 173.97266 73.232422 C 176.27666 76.048422 177.81208 79.119266 178.58008 82.447266 C 179.47608 85.647266 179.92383 89.680922 179.92383 94.544922 L 185.10742 95.503906 L 193.36328 59.023438 L 192.91016 59.023438 z M 91.027344 61.824219 L 91.027344 63.824219 C 91.411344 63.824219 92.051266 63.887625 92.947266 64.015625 C 97.555266 64.655625 100.69147 65.424312 102.35547 66.320312 C 103.95104 67.004128 104.83291 68.350507 105.00781 70.353516 C 105.03077 69.927101 105.04492 69.513414 105.04492 69.119141 C 105.04492 66.687141 104.14747 65.088313 102.35547 64.320312 C 100.69147 63.424312 97.555266 62.655625 92.947266 62.015625 C 92.051266 61.887625 91.411344 61.824219 91.027344 61.824219 z M 165.00195 96.773438 L 151.31641 147.26367 L 146.2207 146.35547 C 146.13597 146.99162 146.04662 147.63489 145.93945 148.30469 L 151.31641 149.26367 L 165.52344 96.847656 L 165.00195 96.773438 z M 120.4043 120.57617 L 110.03711 159.16797 C 108.11711 164.92797 107.15625 169.28061 107.15625 172.22461 C 107.15625 172.57025 107.17061 172.89976 107.19531 173.2207 C 107.37917 170.32283 108.32306 166.31013 110.03711 161.16797 L 120.4043 122.57617 C 130.6443 122.70417 137.55662 123.98402 141.14062 126.41602 C 144.69153 128.74247 146.52363 132.96441 146.67773 139.03906 C 146.6902 138.64091 146.70898 138.23493 146.70898 137.85547 C 146.70898 131.32747 144.85263 126.84802 141.14062 124.41602 C 137.55662 121.98402 130.6443 120.70417 120.4043 120.57617 z M 64.148438 185.47266 L 64.148438 187.47266 L 120.78906 187.47266 L 120.78906 185.47266 L 64.148438 185.47266 z "
       transform="translate(43.866063,-47.724681)"
       id="path897" />
  </g>
  <g
     aria-label="F"
     style="font-style:normal;font-weight:normal;font-size:40px;line-height:1.25;font-family:sans-serif;letter-spacing:0px;word-spacing:0px;fill:#000000;fill-opacity:1;stroke:none"
     id="g903"
     transform="translate(-43.866063,45.724681)" />
</svg>
